dist/img/svg/icon-outer.svg

<svg width="22" height="22" viewBox="0 0 22 22" fill="none" xmlns="http://www.w3.org/2000/svg">
<path d="M0.766191 6.64988C1.18943 6.64988 1.53238 6.30682 1.53238 5.88367V2.61675L6.46716 7.55063C6.61683 7.7002 6.81287 7.77498 7.00891 7.77498C7.20506 7.77498 7.4012 7.7002 7.55076 7.55053C7.84998 7.2513 7.84998 6.76614 7.55066 6.46701L2.61567 1.53303H5.88322C6.30637 1.53303 6.64941 1.18997 6.64941 0.76682C6.64941 0.343668 6.30647 0.000610352 5.88322 0.000610352H0.766191C0.342947 0.000610352 0 0.343668 0 0.76682V5.88377C0 6.30682 0.342947 6.64988 0.766191 6.64988Z" fill="black"/>
<path d="M21.2337 15.3507C20.8104 15.3507 20.4675 15.6938 20.4675 16.1169V19.3839L15.3808 14.2971C15.0815 13.9979 14.5964 13.9979 14.2972 14.2971C13.998 14.5963 13.998 15.0815 14.2972 15.3806L19.3838 20.4673H16.1171C15.6938 20.4673 15.3509 20.8104 15.3509 21.2336C15.3509 21.6567 15.6938 21.9998 16.1171 21.9998H21.2338C21.657 21.9998 22 21.6567 22 21.2336V16.1169C21.9999 15.6938 21.6568 15.3507 21.2337 15.3507Z" fill="black"/>
<path d="M6.61911 14.2971L1.53293 19.3838V16.1169C1.53293 15.6938 1.18998 15.3507 0.766741 15.3507C0.343496 15.3507 0.000549316 15.6938 0.000549316 16.1169V21.2338C0.000549316 21.6569 0.343496 22 0.766741 22H5.88326C6.3064 22 6.64945 21.6569 6.64945 21.2338C6.64945 20.8106 6.30651 20.4676 5.88326 20.4676H2.61643L7.70271 15.3806C8.00194 15.0814 8.00194 14.5963 7.70261 14.297C7.40359 13.9979 6.91844 13.9979 6.61911 14.2971Z" fill="black"/>
<path d="M21.2337 0H16.117C15.6937 0 15.3508 0.343057 15.3508 0.766209C15.3508 1.18936 15.6937 1.53242 16.117 1.53242H19.3839L14.4498 6.46691C14.1506 6.76614 14.1506 7.2513 14.4499 7.55053C14.5995 7.7001 14.7956 7.77488 14.9917 7.77488C15.1877 7.77488 15.3839 7.69999 15.5335 7.55043L20.4676 2.61594V5.88306C20.4676 6.30621 20.8106 6.64927 21.2338 6.64927C21.657 6.64927 22 6.30621 22 5.88306V0.766209C21.9999 0.342955 21.6568 0 21.2337 0Z" fill="black"/>
</svg>

<svg width="22" height="22" viewBox="0 0 22 22" fill="none" xmlns="http://www.w3.org/2000/svg"><path d="M.766 6.65a.766.766 0 00.766-.766V2.617L6.467 7.55a.764.764 0 001.084 0 .767.767 0 000-1.084L2.616 1.533h3.267a.766.766 0 000-1.532H.766A.766.766 0 000 .767v5.117c0 .423.343.766.766.766zm20.468 8.7a.766.766 0 00-.767.767v3.267l-5.086-5.087a.766.766 0 00-1.084 1.084l5.087 5.086h-3.267a.766.766 0 100 1.533h5.117a.766.766 0 00.766-.766v-5.117a.766.766 0 00-.766-.766zM6.62 14.297l-5.087 5.087v-3.267a.766.766 0 10-1.532 0v5.117c0 .423.342.766.766.766h5.116a.766.766 0 000-1.532H2.616l5.087-5.087a.766.766 0 10-1.084-1.084zM21.234 0h-5.117a.766.766 0 100 1.532h3.267L14.45 6.467a.766.766 0 101.084 1.083l4.934-4.934v3.267a.766.766 0 101.532 0V.766A.766.766 0 0021.234 0z" fill="#000"/></svg>
